!!! OTL: Literature149
!!! Chapter: 5
!!! Section: IV
!!! Page: 380
!!! Mode: 
!!! Encoder: DJB
**kern
*staff1
*I"Piano
=1-
*clefG2
*k[b-e-]
*B-:
*M3/4
4g/
2ee-\
=2
12dd\L
12bn\
12cc\J
2ff#\
=3
4ff\
4b-\
8.cc\L
16dd\Jk
=4
4ee-\
4r
8r
8ee-\
=5
8.dd\L
16b-\Jk
4.cc\
8g/
=6
12a-\L
12b-\
12cc\J
4b-\
8r
8ee-\
=7
8.dd\L
16b-\Jk
4.cc\
8g/
=8
12a-\L
12b-\
12cc\J
2dd\
=9
!!linebreak:original
*M4/4
4g/
8.a-/L
16g/Jk
4.ee-\
8cc\
=10
2a-/
4dd\
4r
=11
4g/
8.a-/L
16g/Jk
4.ee-\
8cc\
=12
2a/
2dd\
=13
*M3/4
2ff\
8dd\
8r
=14
2ff\
8.b-\L
16cc\Jk
=15
[2.dd\
=16
4dd\]
2r
=17
2ee-\
4a-/
=18
2cc\
8.a-/L
16g/Jk
=19
[2.f#/
=20
!!linebreak:original
2.f#/]
=21
4f/
8.b-\L
16cc\Jk
[4dd\
=22
4dd\_
8dd\]
8r
4gg\
=23
8.dd\L
16b-\Jk
[4cc\
12cc\L]
12dd\
12cc\J
=24
2b-\
4r
==
*-
